!!!OTL: O TANNENBAUM O TANNENBAUM
!!!ARE: Europa, Mitteleuropa, Deutschland, Sachsen
!!!SCT: Z0263
!!!YEM: Copyright 1995, estate of Helmut Schaffrath.
**kern
*ICvox
*Ivox
*M3/4
*k[]
*C:
{8G
=1
8c
8c
4.c
8G
=2
8d
8d
4.d}
{8G
=3
8e
8c
4f
4e
=4
4d
4c
8r}
{8g
=5
8g
8g
4.g
8a
=6
8f
8f
4.f}
{8f
=7
8e
8e
4.e
8e
=8
8d
8d
4.d}
{8G
=9
8c
8c
4.c
8G
=10
8d
8d
4.d}
{8G
=11
8e
8c
4f
4e
=12
4d
4c
8r}
==
!!!AGN: Weihnachts - Lied
!!!ONB: ESAC (Essen Associative Code) Database: ZUCCAL
!!!AMT: simple triple
!!!AIN: vox
!!!EED: Helmut Schaffrath
!!!EEV: 1.0
*-
